src/components/game/cards/illustrations/KS.svg

<svg xmlns="http://www.w3.org/2000/svg" xmlns:xlink="http://www.w3.org/1999/xlink" class="card" height="336" preserveAspectRatio="none" viewBox="-120 -168 240 336" width="240"><symbol id="b" viewBox="-600 -600 1200 1200" preserveAspectRatio="xMinYMid"><path d="M0-500c100 250 355 400 355 685a150 150 0 01-300 0 10 10 0 00-20 0c0 200 50 215 95 315h-260c45-100 95-115 95-315a10 10 0 00-20 0 150 150 0 01-300 0c0-285 255-435 355-685z"/></symbol><symbol id="a" viewBox="-500 -500 1000 1000" preserveAspectRatio="xMinYMid"><path d="M-285-460h200m-100 0v920m-100 0h200M85-460h200m-100 20l-355 595M85 460h200m-100-20L-10-70" stroke="#000" stroke-width="80" stroke-linecap="square" stroke-miterlimit="1.5" fill="none"/></symbol><rect width="239" height="335" x="-119.5" y="-167.5" rx="12" ry="12" fill="#fff" stroke="#000"/><use xlink:href="#a" height="70" x="-122" y="-156"/><use xlink:href="#b" height="58.558" x="-116.279" y="-81"/><g transform="rotate(180)"><use xlink:href="#a" height="70" x="-122" y="-156"/><use xlink:href="#b" height="58.558" x="-116.279" y="-81"/></g></svg>

<?xml version="1.0" encoding="UTF-8" standalone="no"?>
<svg xmlns="http://www.w3.org/2000/svg" xmlns:xlink="http://www.w3.org/1999/xlink" class="card" face="KS" height="3.5in" preserveAspectRatio="none" viewBox="-120 -168 240 336" width="2.5in"><symbol id="SSK" viewBox="-600 -600 1200 1200" preserveAspectRatio="xMinYMid"><path d="M0 -500C100 -250 355 -100 355 185A150 150 0 0 1 55 185A10 10 0 0 0 35 185C35 385 85 400 130 500L-130 500C-85 400 -35 385 -35 185A10 10 0 0 0 -55 185A150 150 0 0 1 -355 185C-355 -100 -100 -250 0 -500Z" fill="black"></path></symbol><symbol id="VSK" viewBox="-500 -500 1000 1000" preserveAspectRatio="xMinYMid"><path d="M-285 -460L-85 -460M-185 -460L-185 460M-285 460L-85 460M85 -460L285 -460M185 -440L-170 155M85 460L285 460M185 440L-10 -70" stroke="black" stroke-width="80" stroke-linecap="square" stroke-miterlimit="1.5" fill="none"></path></symbol><rect width="239" height="335" x="-119.5" y="-167.5" rx="12" ry="12" fill="white" stroke="black"></rect><use xlink:href="#VSK" height="70" x="-122" y="-156"></use><use xlink:href="#SSK" height="58.558" x="-116.279" y="-81"></use><g transform="rotate(180)"><use xlink:href="#VSK" height="70" x="-122" y="-156"></use><use xlink:href="#SSK" height="58.558" x="-116.279" y="-81"></use></g></svg>
